dist/icons/svgs/diamond-turn-right-outline.svg

<svg xmlns="http://www.w3.org/2000/svg" width="24" height="24" fill="currentcolor" class="icon-diamond-turn-right-outline" viewBox="0 0 24 24">
  <path d="M3.95312 11.7266C3.91406 11.8047 3.875 11.9219 3.875 12C3.875 12.1172 3.91406 12.2344 3.95312 12.2734L11.7266 20.0469C11.7656 20.0859 11.8828 20.125 12 20.125C12.0781 20.125 12.1953 20.0859 12.2734 20.0469L20.0078 12.2734C20.0859 12.2344 20.125 12.1172 20.125 12C20.125 11.9219 20.0859 11.8047 20.0078 11.7266L12.2734 3.99219C12.1953 3.91406 12.0781 3.875 12 3.875C11.8828 3.875 11.7656 3.91406 11.7266 3.99219L3.95312 11.7266ZM10.3984 2.66406C10.7891 2.27344 11.375 2 12 2C12.5859 2 13.1719 2.27344 13.6016 2.66406L21.3359 10.3984C21.7266 10.8281 22 11.4141 22 12C22 12.625 21.7266 13.2109 21.3359 13.6016L13.6016 21.3359C13.1719 21.7656 12.5859 22 12 22C11.375 22 10.7891 21.7656 10.3984 21.3359L2.66406 13.6016C2.23438 13.2109 2 12.625 2 12C2 11.4141 2.23438 10.8281 2.66406 10.3984L10.3984 2.66406ZM14.3047 7.82031L16.8047 10.3203C17.0391 10.5547 17.0391 10.9844 16.8047 11.2188L14.3047 13.7188C14.1094 13.875 13.8359 13.9531 13.6016 13.8359C13.3672 13.7578 13.25 13.5234 13.25 13.25V11.6875H11.375C11.0234 11.6875 10.75 12 10.75 12.3125V14.1875C10.75 14.7344 10.3203 15.125 9.8125 15.125C9.26562 15.125 8.875 14.7344 8.875 14.1875V12.3125C8.875 10.9453 9.96875 9.8125 11.375 9.8125H13.25V8.25C13.25 8.01562 13.4062 7.78125 13.6016 7.70312C13.8359 7.58594 14.1094 7.66406 14.3047 7.82031Z"/>
</svg>

<svg xmlns="http://www.w3.org/2000/svg" width="24" height="24" fill="currentColor" class="icon-diamond-turn-right-outline" viewBox="0 0 24 24">
  <path d="M3.953 11.727a.7.7 0 0 0-.078.273c0 .117.04.234.078.273l7.774 7.774c.039.039.156.078.273.078.078 0 .195-.04.273-.078l7.735-7.774c.078-.039.117-.156.117-.273a.42.42 0 0 0-.117-.273l-7.735-7.735A.42.42 0 0 0 12 3.875c-.117 0-.234.04-.273.117zm6.445-9.063C10.79 2.274 11.375 2 12 2c.586 0 1.172.273 1.602.664l7.734 7.734c.39.43.664 1.016.664 1.602 0 .625-.273 1.21-.664 1.602l-7.734 7.734A2.28 2.28 0 0 1 12 22c-.625 0-1.21-.234-1.602-.664l-7.734-7.734C2.234 13.21 2 12.625 2 12c0-.586.234-1.172.664-1.602zm3.907 5.156 2.5 2.5a.66.66 0 0 1 0 .899l-2.5 2.5c-.196.156-.47.234-.703.117-.235-.078-.352-.313-.352-.586v-1.562h-1.875a.64.64 0 0 0-.625.624v1.876c0 .546-.43.937-.937.937-.547 0-.938-.39-.938-.937v-1.876c0-1.367 1.094-2.5 2.5-2.5h1.875V8.25c0-.234.156-.469.352-.547.234-.117.507-.039.703.117"/>
</svg>
